X: 125002
T: MY HEART IS SAIR
R: Waltz.
%R: waltz
B: James Kerr "Merry Melodies" v.1 p.25 s.0 #2
Z: 2017 John Chambers <jc:trillian.mit.edu>
M: 3/4
L: 1/4
K: D
uA |\
vd2vf | ua2uf | e2d | e2f |\
d2d | f2a | b3 | (af2) |\
d2f | a2f | f/e/^d/e/g/f/ | e2uf |\
(d2B) | (B2A) | a3 | (fd2) |]
b3 | (g2b) | a3 | (fd2) |\
g3 | (f2d) | e3 | (cA2) |\
(d2f) | (e2g) | (f2b) | a3 |\
(d2B) | (B2A) | "_D.C. to Allegro."a3 | (fd) |]

%%sep 1 1 500
%%sep 1 1 500

